static/assets/img/invision.svg

<svg fill="none" height="48" viewBox="0 0 48 48" width="48" xmlns="http://www.w3.org/2000/svg"><path d="m43.6487 0h-39.29739c-2.40318 0-4.35131 1.94813-4.35131 4.35131v39.29739c0 2.4032 1.94813 4.3513 4.35131 4.3513h39.29739c2.4032 0 4.3513-1.9481 4.3513-4.3513v-39.29739c0-2.40318-1.9481-4.35131-4.3513-4.35131z" fill="#dc395f"/><path d="m16.0416 15.1022c1.5956 0 2.9323-1.2506 2.9323-2.8898 0-1.638-1.3367-2.88839-2.9323-2.88839s-2.932 1.25039-2.932 2.88839c0 1.639 1.3364 2.8898 2.932 2.8898zm-6.07989 15.4725c-.17231.7331-.25875 1.5247-.25875 2.1705 0 2.5446 1.37984 4.2337 4.31214 4.2337 2.4319 0 4.4034-1.4441 5.823-3.776l-.8668 3.4787h4.829l2.76-11.0698c.69-2.8028 2.0267-4.2576 4.0536-4.2576 1.5954 0 2.5871.9922 2.5871 2.6302 0 .4746-.0431.9915-.2156 1.5524l-1.4231 5.0881c-.2157.7332-.3015 1.4667-.3015 2.1561 0 2.4156 1.4225 4.1824 4.398 4.1824 2.5442 0 4.5707-1.6378 5.6919-5.562l-1.8971-.7324c-.9488 2.6289-1.7681 3.1043-2.415 3.1043s-.9919-.4309-.9919-1.2929c0-.3881.0866-.8188.2156-1.3374l1.3802-4.9571c.3448-1.164.4744-2.1962.4744-3.1446 0-3.7084-2.2425-5.6437-4.959-5.6437-2.544 0-5.1315 2.2948-6.4249 4.71l.9484-4.335h-7.3733l-1.035 3.8182h3.4499l-2.1244 8.505c-1.6682 3.7084-4.7325 3.7686-5.1171 3.6825-.6315-.1425-1.0354-.3823-1.0354-1.2028 0-.4734.0863-1.1535.3019-1.9734l3.2344-12.8295h-8.19301l-1.035 3.8182h3.40631l-2.19881 8.9839" fill="#fff"/></svg>

<svg width="48" height="48" viewBox="0 0 48 48" fill="none" xmlns="http://www.w3.org/2000/svg">
<path d="M43.6487 0H4.35131C1.94813 0 0 1.94813 0 4.35131V43.6487C0 46.0519 1.94813 48 4.35131 48H43.6487C46.0519 48 48 46.0519 48 43.6487V4.35131C48 1.94813 46.0519 0 43.6487 0Z" fill="#DC395F"/>
<path d="M16.0416 15.1022C17.6372 15.1022 18.9739 13.8516 18.9739 12.2124C18.9739 10.5744 17.6372 9.32401 16.0416 9.32401C14.446 9.32401 13.1096 10.5744 13.1096 12.2124C13.1096 13.8514 14.446 15.1022 16.0416 15.1022ZM9.96171 30.5747C9.7894 31.3078 9.70296 32.0994 9.70296 32.7452C9.70296 35.2898 11.0828 36.9789 14.0151 36.9789C16.447 36.9789 18.4185 35.5348 19.8381 33.2029L18.9713 36.6816H23.8003L26.5603 25.6118C27.2503 22.809 28.587 21.3542 30.6139 21.3542C32.2093 21.3542 33.201 22.3464 33.201 23.9844C33.201 24.459 33.1579 24.9759 32.9854 25.5368L31.5623 30.6249C31.3466 31.3581 31.2608 32.0916 31.2608 32.781C31.2608 35.1966 32.6833 36.9634 35.6588 36.9634C38.203 36.9634 40.2295 35.3256 41.3507 31.4014L39.4536 30.669C38.5048 33.2979 37.6855 33.7733 37.0386 33.7733C36.3917 33.7733 36.0467 33.3424 36.0467 32.4804C36.0467 32.0923 36.1333 31.6616 36.2623 31.143L37.6425 26.1859C37.9873 25.0219 38.1169 23.9897 38.1169 23.0413C38.1169 19.3329 35.8744 17.3976 33.1579 17.3976C30.6139 17.3976 28.0264 19.6924 26.733 22.1076L27.6814 17.7726H20.3081L19.2731 21.5908H22.723L20.5986 30.0958C18.9304 33.8042 15.8661 33.8644 15.4815 33.7783C14.85 33.6358 14.4461 33.396 14.4461 32.5755C14.4461 32.1021 14.5324 31.422 14.748 30.6021L17.9824 17.7726H9.78939L8.75439 21.5908H12.1607L9.96189 30.5747" fill="white"/>
</svg>
